src/components/00-materials/images-raw/Family.svg

<svg width="96" height="96" viewBox="0 0 96 96" fill="none" xmlns="http://www.w3.org/2000/svg">
<path d="M37 27C35.9652 27.0397 34.9413 26.7771 34.0534 26.2444C33.1654 25.7116 32.4519 24.9317 32 24C30.66 26.75 29.07 29 25 29H21V35C21 39.67 23.81 44 29 44C34.19 44 37 39.67 37 35V27Z" stroke="#00008F" stroke-width="2" stroke-linecap="round" stroke-linejoin="round"/>
<path d="M37 37C37 37 42 35 42 28V26C42 23 42 19 38 19C36.13 15.88 34 14 29 14H28C24.8303 14.0414 21.8021 15.319 19.5605 17.5605C17.319 19.8021 16.0414 22.8303 16 26V28C16 35 21 37 21 37M23 41.27V46L17.38 46.61C15.1335 46.8495 13.0489 47.8917 11.5094 49.5452C9.96985 51.1986 9.0788 53.3522 9 55.61V58.93C9.02342 59.6144 9.28663 60.2688 9.74361 60.7788C10.2006 61.2887 10.8223 61.6219 11.5 61.72L19.7 63.17C25.8521 64.26 32.1479 64.26 38.3 63.17L42 62.53M35 41.18V46L38.63 46.4M17 58V62.7" stroke="#00008F" stroke-width="2" stroke-linecap="round" stroke-linejoin="round"/>
<path d="M23 46L27.29 53.14C27.4683 53.4339 27.7193 53.6769 28.0188 53.8455C28.3183 54.0142 28.6563 54.1027 29 54.1027C29.3437 54.1027 29.6817 54.0142 29.9812 53.8455C30.2807 53.6769 30.5317 53.4339 30.71 53.14L35 46M61 41.27V46L57.37 46.4M73 41.18V46L78.62 46.62C80.8665 46.8595 82.9511 47.9017 84.4906 49.5552C86.0301 51.2086 86.9212 53.3622 87 55.62V58.94C86.977 59.6229 86.7152 60.2761 86.2602 60.7859C85.8052 61.2957 85.1859 61.6298 84.51 61.73L76.31 63.18C70.1579 64.27 63.8621 64.27 57.71 63.18L54 62.53M79 58V62.7M59 32V35C59 39.67 61.81 44 67 44C72.19 44 75 39.67 75 35V25C75 25 73 28 70 28H64C60 28 59 30 59 30V32Z" stroke="#00008F" stroke-width="2" stroke-linecap="round" stroke-linejoin="round"/>
<path d="M80 46.91C83.16 46.31 84 43 84 43C84 43 80 41 80 37V25C80 23 79 21 77 21C75.11 17.91 73 15 67 15H66C59 15 54 21 54 28V37C53.961 38.0208 53.6904 39.0193 53.2088 39.9201C52.7272 40.821 52.0471 41.6006 51.22 42.2" stroke="#00008F" stroke-width="2" stroke-linecap="round" stroke-linejoin="round"/>
<path d="M77.6 46.5C76.32 50.25 72.06 53 67 53C64.0349 53.0485 61.1518 52.026 58.88 50.12M51 50C49.85 52.4 48.5 54 45 54H41V58C41 62.07 43.55 66 48 66C52.45 66 55 62.07 55 58V53C54.1064 52.9692 53.2438 52.665 52.5286 52.1286C51.8133 51.5921 51.2798 50.8492 51 50Z" stroke="#00008F" stroke-width="2" stroke-linecap="round" stroke-linejoin="round"/>
<path d="M54.17 61.89C55.6733 60.9504 56.908 59.638 57.7544 58.0803C58.6007 56.5226 59.0298 54.7725 59 53V52C58.939 49.367 57.8658 46.8588 56.0035 44.9965C54.1412 43.1342 51.633 42.061 49 42H47C44.367 42.061 41.8588 43.1342 39.9965 44.9965C38.1342 46.8588 37.061 49.367 37 52V53C36.9702 54.7725 37.3993 56.5226 38.2456 58.0803C39.092 59.638 40.3267 60.9504 41.83 61.89M43 64V68M43 68L38.12 69C36.1998 69.2246 34.4244 70.1318 33.1173 71.5563C31.8103 72.9808 31.0589 74.8276 31 76.76V79.63C31.0254 80.2091 31.2504 80.7615 31.6368 81.1935C32.0233 81.6255 32.5473 81.9105 33.12 82L40.12 83.25C45.3505 84.2001 50.7095 84.2001 55.94 83.25L62.94 82C63.5017 81.8981 64.0119 81.6078 64.3864 81.1769C64.7609 80.7461 64.9773 80.2004 65 79.63V76.76C64.9411 74.8276 64.1897 72.9808 62.8827 71.5563C61.5756 70.1318 59.8002 69.2246 57.88 69L53 68M43 68C43 69.3261 43.5268 70.5979 44.4645 71.5355C45.4021 72.4732 46.6739 73 48 73C49.3261 73 50.5979 72.4732 51.5355 71.5355C52.4732 70.5979 53 69.3261 53 68M53 64V68M38 79V82.92M58 79V82.92" stroke="#00008F" stroke-width="2" stroke-linecap="round" stroke-linejoin="round"/>
</svg>

<svg width="96" height="96" viewBox="0 0 96 96" fill="none" xmlns="http://www.w3.org/2000/svg"><path d="M37 27a5.33 5.33 0 01-5-3c-1.34 2.75-2.93 5-7 5h-4v6c0 4.67 2.81 9 8 9 5.19 0 8-4.33 8-9v-8z" stroke="#00008F" stroke-width="2" stroke-linecap="round" stroke-linejoin="round"/><path d="M37 37s5-2 5-9v-2c0-3 0-7-4-7-1.87-3.12-4-5-9-5h-1a12.16 12.16 0 00-12 12v2c0 7 5 9 5 9m2 4.27V46l-5.62.61a9.38 9.38 0 00-8.38 9v3.32a2.92 2.92 0 002.5 2.79l8.2 1.45a53.308 53.308 0 0018.6 0l3.7-.64m-7-21.35V46l3.63.4M17 58v4.7" stroke="#00008F" stroke-width="2" stroke-linecap="round" stroke-linejoin="round"/><path d="M23 46l4.29 7.14a2 2 0 003.42 0L35 46m26-4.73V46l-3.63.4M73 41.18V46l5.62.62a9.38 9.38 0 018.38 9v3.32a2.92 2.92 0 01-2.49 2.79l-8.2 1.45a53.308 53.308 0 01-18.6 0L54 62.53M79 58v4.7M59 32v3c0 4.67 2.81 9 8 9 5.19 0 8-4.33 8-9V25s-2 3-5 3h-6c-4 0-5 2-5 2v2z" stroke="#00008F" stroke-width="2" stroke-linecap="round" stroke-linejoin="round"/><path d="M80 46.91c3.16-.6 4-3.91 4-3.91s-4-2-4-6V25c0-2-1-4-3-4-1.89-3.09-4-6-10-6h-1c-7 0-12 6-12 13v9a6.74 6.74 0 01-2.78 5.2" stroke="#00008F" stroke-width="2" stroke-linecap="round" stroke-linejoin="round"/><path d="M77.6 46.5C76.32 50.25 72.06 53 67 53a12.32 12.32 0 01-8.12-2.88M51 50c-1.15 2.4-2.5 4-6 4h-4v4c0 4.07 2.55 8 7 8s7-3.93 7-8v-5a4.37 4.37 0 01-4-3z" stroke="#00008F" stroke-width="2" stroke-linecap="round" stroke-linejoin="round"/><path d="M54.17 61.89A10.28 10.28 0 0059 53v-1a10.24 10.24 0 00-10-10h-2a10.24 10.24 0 00-10 10v1a10.28 10.28 0 004.83 8.89M43 64v4m0 0l-4.88 1A8.06 8.06 0 0031 76.76v2.87A2.51 2.51 0 0033.12 82l7 1.25c5.23.95 10.59.95 15.82 0l7-1.25A2.51 2.51 0 0065 79.63v-2.87A8.06 8.06 0 0057.88 69L53 68m-10 0a5 5 0 1010 0m0-4v4M38 79v3.92M58 79v3.92" stroke="#00008F" stroke-width="2" stroke-linecap="round" stroke-linejoin="round"/></svg>
